src/svg/logo.svg

<?xml version="1.0" encoding="UTF-8"?>
<svg width="72px" height="16px" viewBox="0 0 72 16" version="1.1" xmlns="http://www.w3.org/2000/svg" xmlns:xlink="http://www.w3.org/1999/xlink">
    <!-- Generator: Sketch 42 (36781) - http://www.bohemiancoding.com/sketch -->
    <title>logo-sm</title>
    <desc>Created with Sketch.</desc>
    <defs></defs>
    <g id="assets" stroke="none" stroke-width="1" fill="none" fill-rule="evenodd">
        <g id="logo-sm" fill="#FFFFFF">
            <path d="M0,15.7325905 L0,13.994429 L1.93998775,13.994429 L1.93998775,1.71587744 L0,1.71587744 L0,0 L6.63563993,0 C7.93631353,0 8.90630741,0.0668523677 9.94243723,0.378830084 C12.9185548,1.31476323 14.8585426,4.03342618 14.8585426,7.86629526 C14.8585426,11.6768802 12.9846908,14.3286908 9.94243723,15.3091922 C8.92835273,15.643454 7.8922229,15.7325905 6.65768524,15.7325905 L0,15.7325905 Z M4.14451929,13.9052925 L6.52541335,13.9052925 C7.53949786,13.9052925 8.37721984,13.816156 9.17085119,13.5041783 C11.2651562,12.7688022 12.5658298,10.7409471 12.5658298,7.86629526 C12.5658298,4.96935933 11.2651562,2.94150418 9.19289651,2.18384401 C8.33312921,1.8718663 7.53949786,1.82729805 6.52541335,1.82729805 L4.14451929,1.82729805 L4.14451929,13.9052925 Z M18.7605634,2.20612813 L21.0091855,2.20612813 L21.0091855,0 L18.7605634,0 L18.7605634,2.20612813 Z M17.0630741,15.7325905 L22.7066748,15.7325905 L22.7066748,14.0612813 L20.9430496,14.0612813 L20.9430496,4.45682451 L16.9528475,4.45682451 L16.9528475,6.1281337 L18.804654,6.1281337 L18.804654,14.0612813 L17.0630741,14.0612813 L17.0630741,15.7325905 Z M24.2278016,10.0947075 C24.2278016,6.50696379 26.630741,4.18941504 29.8052664,4.18941504 C32.9797918,4.18941504 34.6331904,6.55153203 34.6331904,9.47075209 C34.6331904,9.76044568 34.5670545,10.2952646 34.5670545,10.2952646 L26.4102878,10.2952646 C26.5425597,12.7910864 28.2841396,14.1281337 30.268218,14.1281337 C32.2082058,14.1281337 33.5970606,12.8579387 33.5970606,12.8579387 L34.4788732,14.4401114 C34.4788732,14.4401114 32.8034293,16 30.1359461,16 C26.630741,16 24.2278016,13.4373259 24.2278016,10.0947075 Z M26.4984691,8.91364903 L32.4286589,8.91364903 C32.362523,6.93036212 31.1720759,5.90529248 29.7611758,5.90529248 C28.1298224,5.90529248 26.8071035,7.01949861 26.4984691,8.91364903 Z M37.8297612,11.6100279 C37.8297612,15.3760446 40.6736069,15.821727 42.084507,15.821727 C42.5474587,15.821727 42.8560931,15.7771588 42.8560931,15.7771588 L42.8560931,13.9721448 C42.8560931,13.9721448 42.6576852,13.994429 42.3490508,13.994429 C41.5113288,13.994429 39.9681568,13.7047354 39.9681568,11.4094708 L39.9681568,6.1281337 L42.6356399,6.1281337 L42.6356399,4.45682451 L39.9681568,4.45682451 L39.9681568,1.35933148 L37.8738518,1.35933148 L37.8738518,4.45682451 L35.9559094,4.45682451 L35.9559094,6.1281337 L37.8297612,6.1281337 L37.8297612,11.6100279 Z M50.1751378,15.7325905 L56.2816901,15.7325905 L56.2816901,13.994429 L54.3196571,13.994429 L54.3196571,1.71587744 L56.2816901,1.71587744 L56.2816901,0 L50.1751378,0 L50.1751378,1.71587744 L52.1151255,1.71587744 L52.1151255,13.994429 L50.1751378,13.994429 L50.1751378,15.7325905 Z M58.3980404,15.7325905 L64.0416412,15.7325905 L64.0416412,14.0612813 L62.2780159,14.0612813 L62.2780159,10.4958217 C62.2780159,8.24512535 63.7550521,6.17270195 66.0036742,6.17270195 C67.7893448,6.17270195 68.0979792,7.42061281 68.0979792,9.00278552 L68.0979792,15.7325905 L72,15.7325905 L72,14.0612813 L70.2363748,14.0612813 L70.2363748,8.51253482 C70.2363748,5.63788301 69.0900184,4.18941504 66.5327618,4.18941504 C63.7109614,4.18941504 62.4102878,6.32869081 62.1898347,6.93036212 L62.145744,6.93036212 C62.145744,6.93036212 62.21188,6.64066852 62.21188,6.28412256 L62.21188,5.70473538 C62.21188,4.88022284 61.7709737,4.45682451 60.8009798,4.45682451 L58.2878138,4.45682451 L58.2878138,6.1281337 L59.6546234,6.1281337 C59.9632578,6.1281337 60.1396203,6.28412256 60.1396203,6.6183844 L60.1396203,14.0612813 L58.3980404,14.0612813 L58.3980404,15.7325905 Z" id="Diet-In"></path>
        </g>
    </g>
</svg>

<svg width="72" height="16" viewBox="0 0 72 16" xmlns="http://www.w3.org/2000/svg">
  <title>
    Logo Diet In
  </title>
  <path d="M0 15.733v-1.74h1.94V1.717H0V0h6.636c1.3 0 2.27.067 3.306.38 2.977.935 4.917 3.653 4.917 7.486 0 3.81-1.875 6.463-4.918 7.443-1.014.333-2.05.423-3.284.423H0zm4.145-1.828h2.38c1.014 0 1.852-.09 2.646-.4 2.095-.736 3.396-2.764 3.396-5.64 0-2.896-1.3-4.923-3.373-5.68-.86-.313-1.654-.358-2.668-.358h-2.38v12.078zm14.616-11.7h2.25V0h-2.25v2.206zm-1.697 13.528h5.644V14.06h-1.764V4.458h-3.99v1.67h1.852v7.934h-1.742v1.673zm7.165-5.638c0-3.588 2.403-5.906 5.577-5.906 3.175 0 4.828 2.362 4.828 5.28 0 .29-.066.825-.066.825H26.41c.133 2.496 1.874 3.833 3.858 3.833 1.94 0 3.33-1.27 3.33-1.27l.88 1.582S32.804 16 30.137 16c-3.505 0-5.908-2.563-5.908-5.905zm2.27-1.18h5.93c-.065-1.985-1.256-3.01-2.667-3.01-1.63 0-2.953 1.114-3.262 3.01zM37.83 11.61c0 3.766 2.844 4.212 4.255 4.212.462 0 .77-.045.77-.045v-1.805s-.197.022-.506.022c-.84 0-2.382-.29-2.382-2.585V6.127h2.668v-1.67h-2.668v-3.1h-2.094v3.1h-1.918v1.67h1.874v5.482zm12.345 4.123h6.107v-1.74H54.32V1.717h1.962V0h-6.107v1.716h1.94v12.278h-1.94v1.74zm8.223 0h5.644V14.06h-1.764v-3.564c0-2.25 1.477-4.323 3.726-4.323 1.785 0 2.094 1.248 2.094 2.83v6.73H72V14.06h-1.764V8.514c0-2.875-1.146-4.324-3.703-4.324-2.822 0-4.123 2.14-4.343 2.74h-.044s.066-.29.066-.646v-.58c0-.824-.44-1.247-1.41-1.247h-2.514v1.67h1.367c.308 0 .485.157.485.49v7.444h-1.742v1.673z" />
</svg>
